X:21113 
T:LOVELY LAD, The 
B:DMI.0406
Z:Nordberg/Black
N:DMI's key signature is D but - as in so many other
instances - the C sharps don't sound right. The version
below is D modal, but you can replace G with D in the
K field if you want to change back to D major.
R:jig
%Q:1/4=160
M:6/8
L:1/8
K:G
"D modal"
c|d2A A2G|F2D D2F|EFE c2G|E2C C2A|
B2G c2A|B2G A2G|F2D EFG|F2D D2:|
d|f2d Ade|f2d def|e2c Gcd|e2c cde|
f2d g2e|a2f g2e|f2d efg|f2d d2:|

%%%

